X:7
T:Colonel O'Hara
Z: id:dc-ocarolan-19
M:C
L:1/8
K:F Major
eg|f2c2 fedc|d2cB B4|gffe dcc2|cBBA GFFC|!
AGAF BABG|cBcA dcdA|BAGF EGDG|C2C2 C2GE|!
FEFD B,CDB,|GFGE CDEC|AGAF DEFD|BABG EFGE|!
FGAB c2de|f2ef gfed|c2AB cBAG|F2f2 F2:|!
FD|C2F2 FEFG|FEFG F2C2|A2A2 ABAG|FGAB c2BA|!
B2f2 efge|fedc c'2c2|a2fa bagf|efde ceag|!
fefd BcdB|gfge cdec|agaf defd|babg efge|!
a2f2 f2f2|e2c2 c2Ac|fedc BAGA|F2f2 F2:|!

